X:1
T:[ID 1-76]
T:[ID 1-76]
T:Bezeichnung standardisiert: Polonaise Polonoise 24.
T:Urheber unbekannt Datum in der hier transkribierten schriftlichen Quelle: 1775
C:Urheber unbekannt
C:Datum in der hier transkribierten schriftlichen Quelle: 1775
L:1/8
M:3/4
K:G
V:1 treble 
V:1
"^O)" GG/B/ AA/c/ B2 | GG/B/ AA/G/ F2 |"^O)" GG/B/ AA/c/ B2 | GG/B/ AA/G/ F2 | %4
"^O)" D/F/A/D/ .A.A.A.A | D/F/A/D/ GGGG |"^O)" D/F/A/D/ .A.A.A.A | D/F/A/D/ GGGG | GG/B/ AA/c/ B2 | %9
 D/C/B,/A,/ B,2 B,2 :: DD/F/ EE/G/ F2 | DB,/D/ EE/D/ ^C2 | dd/f/ ee/g/ f2 | dd/^c/ ee/d/ c2 | %14
"^O)" A/^c/e/A/ .e.e.e.e | A/^c/e/A/ .d.d.d.d |"^O)" A/^c/e/A/ .e.e.e.e | A/^c/e/A/ .d.d.d.d | %18
 dd/f/ ee/g/ f2 | A/G/F/E/ F2 F2 | dG/A/ G/A/B/c/ d2 | dc/d/ e/d/c/=F/ E2 | eA/B/ A/B/^c/d/ e2 | %23
 ed/e/ f/e/d/G/ F2 | GG/B/ AA/c/ B2 | D/C/B,/A,/ B,2 B,2 :| %26

